X:1
T:Test
T:Pictures at an Exhibition - Bilder einer Ausstellung Tableaux d’une exposition (1874) Promenade - 1. Gnome Promenade
T:Comp.: Modest Mussorgsky (1839-1881), transcr.: Theo Thomassen
T:1. Gnome
T:Guitaresque - 2015
T:Guitaresque - 2015
T:Guitaresque - 2015
T:Guitaresque - 2015
T:Guitaresque - 2015
T:Guitaresque - 2015
T:Guitaresque - 2015
T:Guitaresque - 2015
T:Guitaresque - 2015
Z:Guitaresque - 2015
%%score 1 2 ( 3 4 ) ( 5 6 )
L:1/8
Q:1/4=104
M:5/4
K:E
V:1 treble-8 nm="Guitar 1\n(6) = D"
V:2 treble-8 nm="Klassieke gitaar"
V:3 treble-8 nm="Guitar 2\n(6) = D"
V:4 treble-8 
V:5 treble-8 nm="Guitar 3\n(6) = D"
V:6 treble-8 
V:1
!f!"^Allegro giusto, nel modo russico; senza allegrezza, ma poco sostenuto" !tenuto!!3!c2 !tenuto!!1!B2 !tenuto!!2!e2 (!tenuto!!3!f!tenuto!!4!b !tenuto!!1!g2) | %1
[M:6/4] ((!tenuto!!3!f!tenuto!!4!b !tenuto!!1!g2)) !tenuto!!2!e2 !tenuto!!4!f2 !tenuto!!3!c2 !tenuto!!2!B2 | %2
[M:5/4] c2 B2 e2 (fb g2) |[M:6/4] (fb g2) e2 f2 c2 B2 | %4
[M:5/4]!f! !1!B2 !4!c2 !3!G2 (!1!B!4!c !1!F2) | %5
[M:6/4] (!4!c!2!d !1!B2) !4!b2 !1!g2 !4!f!2!e !1!B2 |[M:5/4] !1!B2 !3!c2 !2!G2 (!1!B!3!c !4!A2) | %7
[M:6/4] (!1!e!3!f !2!=d2) !4!=d'2 !1!b2 (!4!a!2!=g !1!d2) | %8
!mf! !1!=d2 !3!e2 !1!d2 !3!e!1!f !4!a!3!e !1!d2 | %9
!f! !2!=g!4!a !1!b!4!=d'!2!=c'!1!b !4!a!2!c'!1!b!2!g !4!a2 | %10
[M:5/4]!mp! !1!=d2 !3!e2 !1!d2 !3!e!1!f !4!a!3!e | %11
[M:6/4]!mf! !1!f2 !3!g2 !1!f2 !3!g!1!b !4!c'!3!g !1!f2 | %12
!f! !2!b!4!c' !1!d'!4!f'!2!e'!1!d' !4!c'!2!e'!1!d'!2!b !4!c'2 | %13
!mf! !2!d'!1!^a !2!b2 !1!d'2 !3!g2 !1!d'2 !3!g2 | !2!b!1!f !3!g2 !1!b2 !3!g2 !2!b!1!f !3!g2 | %15
 !1!A!2!^A !3!B2 !4!e2 !1!=A!2!^A !3!B2 !3!e!4!g | %16
 !1!f2 !2!d2"^2/6 VII" !1!f2 !1!b2 !4!a!3!g!2!f!3!e | !1!f2 !1!g2 !4!b2 !1!c'!4!e' !3!b2 !1!c'2 | %18
 !4!b2 !2!a!1!g !3!f!1!e !3!f2 !1!g2 b2 | !1!c'!4!e' !3!b2 !1!c'2 !4!b2 !3!c2 !1!B2 | %20
 !1!c'!4!e' !3!b2 !1!c'2 b2!ff! !3!c2 !0!B2 | !2!e2 !3!f!4!b !1!g2 !3!f!4!b !1!g2 !2!e2 | %22
 !4!f2 !3!c2 !1!B2 !breath!!3!c2 !1!B2 !2!e2 | %23
 !3!f!4!b !1!g2 !1!!2!!0![Gce]2"^3/6 II" !1!!4![Aca]2 !2!!3!!4![DABf]2"^attacca" .!2!!1!!0![EGBe]2 |] %24
[K:C][M:3/4]!ff![Q:3/4=80]"^Sempre vivo" !2!f!3!A!1!^G!2!f!1!e!-(!!2!G | !-)!c6- | c4- c z | %27
[Q:3/4=75]"^Meno vivo" z6 | z6 | z6 |!ff![Q:3/4=80]"^Sempre vivo" (!2!f!3!A!1!^G!3!f!2!e!1!=G) | %31
 !4!^A2 (!1!e!4!F !3!=A2) | (!1!e!3!E) (!2!^G2 !3!E) z |{/!1!E} .!0!e2 .e'2 !fermata!z2 | z6 | z6 | %36
 z6 | (!2!f!3!A!1!^G!3!f!2!e!1!=G) | !4!^A2 (!1!e!4!F !3!=A2) | (!1!e!3!E) (!2!^G2 !3!E) z | %40
{/!1!E} .!0!e2 .!4!e'2!8va(! !4!e''2!8va)! | !fermata!z6 |: !3!b2 !1!a4- | a2- a z z2 | %44
 !2!g2 !1!^f2- f z | !3!d2 !1!c2- c z | !3!B2 !1!A4- | A2- A z z2 | %48
 !2!!1!!4![Acg]2 !3![Ac^f]2- [Acf] z | !3!!2!!4![FAd]2 [FAc]2- [FAc] z | %50
 z2{/!3!F} .!2!E2{/!3!F,} .!1!E,2 | !fermata!z6 :| (!2!f!3!A!1!^G!2!f!1!e!-(!!2!G) | %53
 !-)!!2!c4{/!2!F} !1!E2- | E z z4 | (!2!f!3!A!1!^G!3!f!2!e!1!=G) | !4!^A2 (!1!e!4!F !3!=A2) | %57
 (!1!e!3!E) (!2!^G2 !3!E) z | z2{/!1!f} !0!e2 .!2!E2 |!>(! !fermata!!3!F6- | F2!>)! !fermata!z4 || %61
[M:4/4][Q:1/2=80]"^Poco meno mosso, pesante"!mf! !0!A,4 !1!!4![^D^d]4 | !sim.!A,4 [Ee]4 | %63
 A,4 [Aa]2 [^G^g]2 | [^A^a]4 [=A=a]4 | !0!A,2 !3!!1![Aa]2 !sim.![^G^g]2 [cc']2 | %66
 [Bb]2 !1!!0![Ee]2 !3!!1![Bb]4 | [cc']2 [Bb]2 !1!!0![Ee]2 [cc']2 |[M:3/4][Q:3/4=80]"^Vivo" z6 | %69
 !fermata!z6 |[M:4/4][Q:1/2=80]"^Poco meno mosso, pesante"!mf! !1!A4 !4!^d'4 | !1!A4 !4!e'4 | %72
 !2!A4 !3!b2 !1!^a2 | !4!d'4 !3!^c'4 | !2!A2 !3!b2 !1!^a2 !4!d'2 | !4!^c'2 !3!g2 !4!c'4 | %76
 d'2 ^c'2 g2 d'2 |[M:3/4]!ff![Q:3/4=80]"^Vivo" (!2!^a!3!d!1!^c!2!a!1!=a!-(!!2!c) | %78
 !-)!!2!f2 !fermata!z4 |[M:4/4][Q:1/2=80]"^Meno mosso" !0!D4 !1!!4![^G^g]4 | !0!D4 !1!!4![Aa]4 | %81
[M:3/4]!ff![Q:3/4=80]"^Vivo" (!2!f'!3!a!1!^g!2!f'!-(!!1!e'!-)!!1!a) | !4!c'2 !fermata!z4 | %83
[M:4/4]!ff![Q:1/2=80]"^Meno mosso"!8va(! !2!a'4 !1!^g'2 !4!c''2 | !3!b'2 !1!e'2 !2!^a'4 | %85
 !4!a'4 !3!^g'2 !2!d'2 | !3!g'2 !1!c'2 !2!^f'4 | !1!f'4 !0!e'2 !2!a2 | !4!^d'4 !3!=d'2 !1!^g2 | %89
 !4!a'4 !3!^g'4 | !2!g'4 !-(!!1!^f'4 | !-)!!1!f'4 !0!e'4 | !4!^d'4 !3!=d'4 | !2!^c'4 !1!=c'4 | %94
 !0!b4 !3!^a2!8va)! z2 |[M:3/4][Q:3/4=80]"^Poco a poco accelerando" z6 | z6 | z6 | z6 | %99
!8va(! b'2 a'4 | z6 | g'2 ^f'2- f' z | d'2 c'2- c' z | b2 a4!8va)! | z6 | !2!g2 !1!^f2- f z | %106
 !3!d2 !1!c2- c z | B2 A2- A z | z6 | !3!B2 !1!A2- A z | z6 | !2!g2 !1!^f2- f z | z6 | %113
!f![Q:3/4=80]"^Sempre vivo" !1!a2 !2!^a2- a z | z6 |!ff! !3!!2!!1![dfa]4 !3!!1!!2![df^a]2- | %116
 [dfa]4 !fermata!z2 | z4"^Velocissimo" !3!f2 | !2!e!1!B!2!c!1!^d!2!e!3!f | %119
 !1!^d!2!e!1!^g!-(!!2!a!-)!!1!b!2!c' | !1!b!3!^g!4!a!1!b!-(!!2!c'!-)!!1!^d' | %121
!8va(! !2!e'!3!f'!1!^d'!-(!!2!e'!-)!!1!^g'!-(!!2!a' | !-)!.!1!c''!8va)! z !fermata!z4 |] %123
V:2
 z10 |[M:6/4] z12 |[M:5/4] z10 |[M:6/4] z12 |[M:5/4] z10 |[M:6/4] z12 |[M:5/4] z10 |[M:6/4] z12 | %8
 z12 | z12 |[M:5/4] z10 |[M:6/4] z12 | z12 | z12 | z12 | z12 | z12 | z12 | z12 | z12 | z12 | z12 | %22
 z12 | z12 |][K:C][M:3/4] z6 | z6 | z6 | z6 | z6 | z6 | z6 | z6 | z6 | z6 | z6 | z6 | z6 | z6 | %38
 z6 | z6 | z6 | z6 |: z6 | z6 | z6 | z6 | z6 | z6 | z6 | z6 | z6 | z6 :| z6 | z6 | z6 | z6 | z6 | %57
 z6 | z6 | z6 | z6 ||[M:4/4] z8 | z8 | z8 | z8 | z8 | z8 | z8 |[M:3/4] z6 | z6 |[M:4/4] z8 | z8 | %72
 z8 | z8 | z8 | z8 | z8 |[M:3/4] z6 | z6 |[M:4/4] z8 | z8 |[M:3/4] z6 | z6 |[M:4/4] z8 | z8 | z8 | %86
 z8 | z8 | z8 | z8 | z8 | z8 | z8 | z8 | z8 |[M:3/4] TA,6- | A,4- (6:4:6A,/^A,/B,/C/^C/D/ | T^D6- | %98
 D4- (6:4:6D/=D/^C/=C/B,/^A,/ | TA,6- | A,4- (6:4:6A,/^A,/B,/C/^C/D/ | T^D6- | %102
 D4- (6:4:6D/=D/^C/=C/B,/^A,/ | TA,6- | A,4- (6:4:6A,/^A,/B,/C/^C/D/ | T^D6- | %106
 D4- (6:4:6D/=D/^C/=C/B,/^A,/ | TA,6- | A,4- (6:4:6A,/^A,/B,/C/^C/D/ | T^D6 | %110
 (11:12:11^D/E/F/^F/G/^G/A/^A/B/c/^c/ | T^d6- | d6 | z6 | z6 | z6 | z6 | z6 | z6 | z6 | z6 | z6 | %122
 z6 |] %123
V:3
 z10 |[M:6/4] z12 | %2
[M:5/4]!mf!"^5/6 VI" [Gc]2 !1!!0![FB]2 !1!!0![Ge]2"^VII" !4!!2!!1![Bdf]2"^4/6 IV" [Bdg]2 | %3
[M:6/4]"^VII" !4!!2!!1![Bdf]2"^4/6 IV" !2![Beg]2 !3!!4!!2![Gce]2"^II" !2![^Acf]2 !1![EAc]2 !1!!0![DB]2 | %4
[M:5/4] z10 |[M:6/4]!mp! x4 .!0!B2 .B2 .B2 .B2 |[M:5/4] z10 | %7
[M:6/4] !1!E!3!F !4!=D2 .!0!D2 .D2 .D2 .D2 |!mf! =D2 !2!E2 D2 !2!E!4!F !2!A!1!E !0!D2 | %9
!f! !2!=d!1!f !1!=g2 !4!a!1!g !1!f2 !1!g2 !1!f2 |[M:5/4]!mp! !0!=D2 !2!E2 !0!D2 !2!E!4!F !2!A!1!E | %11
[M:6/4]!mf! !4!F2 !1!G2 !4!F2 !1!G!4!B !2!c!1!G !4!F2 | %12
!f! !2!f!1!^a !1!b2 !4!c'!1!b !1!a2 !1!b2 !1!a2 | %13
!mf! !3!!4![Bd]2 !3!!4![Bg]2 !3!!1![df]2 !2!!0![^Ae]2 !3!!1![df]2 !2!!0![Ae]2 | %14
 !3!!4![Bd]2 !4![Be]2 !4![Bd]2 !4![Be]2 !4![Bd]2 !4![Be]2 | %15
"^II" !1![cf]2"^CIV" [FBd]2 !3![GB]2- [GB]2 [FBd]2 [FB]2 | %16
 !3!!2![^Ac]2 !4!!1!!0![FGB]2 !3!!2![Ac]2 !0!B2"^V" !4!!3!!1![=Ace]!2!G"^CIV"!1![FBd]!3!!2![GBe] | %17
 [FB]2 !3![GB]2 !3!!1![df]2 !3!!4![ea]2 !0!B2 !3!c2 | %18
 !0!B2"^V" !4!!3!!1![Ace]!2!G"^CIV"!1![FBd]!3!!2![GBe] [FB]2 !3![GB]2 !3!!2!!1![Bdf]2 | %19
"^V" a2 x8 x2 |"^V"!<(! !4!^a2 x4 x2!ff!"^4/6 II" x2 x2!<)! | %21
 !3!B2 (!4!d!0!B) !4!e2 (!4!d!0!B) !4!e2 !0!B2 | %22
 !2!!3![Ac]2 !3!!2![C^A]2 !4!F2"^IV" !breath!!1!!4![CG]2 !1!F2 !2!!1![EG]2 | %23
 !3!!4![FBd]2 !1!!0![GBe]2 !1!!2![EGc]2"^3/6 II" [Acf]2 !3!!4![FBd]2 .!2!!1!!0![EGBe]2 |] %24
[K:C][M:3/4]!ff! !1!F!0!A,!3!^G,!1!F!4!E!3!G, | !1!C6- | C4- C z | %27
!mf! !2!f!3!A!1!^G!2!f!1!e!-(!!2!G | !-)!!2!c6- | c6 |!ff! !1!F!0!A,!3!^G,!1!F!4!E!2!=G, | %31
 !1!^A,2 !2!E!3!F, !0!=A,2 | !2!E!1!E, !4!^G,2 .!1!E, z |{/!1!E,} .!1!!2!E2 .!0!e2 !fermata!z2 | %34
!ff! !2!f!3!A!1!^G!2!f!1!e!-(!!2!G | !-)!!fermata!!2!c6- | c4- c z | z6 | z6 | z6 | %40
 .!1!E2 .!0!e2 .E2 | !fermata!z6 |: !1!!0![ce]2 [ce]4- | [ce]2- [ce] z z2 | %44
 !2!!1![Ac]2 [Ac]2- [Ac] z | !3!!2![FA]2 [FA]2- [FA] z | !3!!2![CE]2 [CE]4- | [CE]2- [CE] z z2 | %48
 !3!!2!!4![Acg]2 [Ac^f]2- [Acf] z | [FAd]2 [FAc]2- [FAc] z | z2{/!3!F} .!2!E2{/!3!F,} .!1!E,2 | %51
 z6 :|!ff! !1!F!0!A,!3!^G,!1!F!4!E!3!G, | !1!C4{/!2!F,} !1!E,2- | E, z z4 | %55
 ((!1!F!0!A,!3!^G,!1!F!4!E!2!=G,)) | !1!^A,2 !2!E!3!F, !0!=A,2 | !2!E!1!E, !4!^G,2 .!1!E, z | %58
 z2{/!3!F} !2!E2 .!1!!1!E,2 | !fermata!!2!F,6- | F,2 !fermata!z4 ||[M:4/4]!mf!!mf! !4!A4 !3!^D4 | %62
 !4!A4 !3!E4 | !4!A4 !2!^F2 !1!=F2 | !3!G4 !2!^F4 | !0!A,2 !2!^F2 !1!=F2 !4!A2 | %66
 !3!^G2 !1!C2 !3!G4 | !4!A2 !3!^G2 !1!C2 !3!G2 |[M:3/4]!ff! !2!f!3!A!1!^G!2!f!1!e!-(!!2!G | %69
 !-)!!2!c2 !fermata!z4 |[M:4/4]!mf! !1!A4 !3!^d4 | !1!A4 !4!e4 | !1!A4 !0![GB]2 !3!!2![^F^A]2 | %73
 !2!!-(!!3![^Ad]4 !2!!-)!!3![=A^c]4 | !0!A,2 !0![GB]2 !3!!2![^F^A]2 !2!!3![Ad]2 | %75
 !2!!3![A^c]2 !1!!0![^DG]2 !2!!-(!!3![Ac]4 | !-(![^Ad]2 !-)![=A^c]2 !1!!0![^DG]2 !3!!4![^Ad]2 | %77
[M:3/4]!ff! !3!^A!0!D!4!^C!3!A!2!=A!4!C | !3!F2 !fermata!z4 |[M:4/4] !1!D4 !2!^G4 | !1!D4 !3!A4 | %81
[M:3/4] z6 | !fermata!z6 |[M:4/4]!mf!{/!1!A} !4!a4 !1!^g2 !4!c'2 | !3!b2 !1!e2 !2!^a4 | %85
 !4!a4 !3!^g2 !2!d2 | !3!g2 !1!c2 !2!^f4 | !1!f4 !0!e2 !2!A2 | !4!^d4 !3!=d2 !1!^G2 | %89
 !4!a4 !3!^g4 | !2!g4 !-(!!1!^f4 | !-)!!1!f4 !0!e4 | !4!^d4 !3!=d4 | !2!^c4 !1!=c4 | %94
 !0!B4 !3!^A2 z2 |[M:3/4]!p!!<(! T!0/2/0/2/...!A,6- | (A,4 !-(!!2!^A,2)!<)! | %97
!f!!-)!{/!2!E} T!1/2/1/2/...!^D6- | (D4 !-(!E2) |!p!!<(! !-)!TA,6- | (A,4 !-(!^A,2)!<)! | %101
!f!!-)!{/E} T^D6- | (D4 !-(!E2) |!p!!<(! !-)!TA,6- | (A,4 !-(!^A,2)!<)! |!f!!-)!{/E} T^D6- | %106
 (D4 !-(!E2) |!p!!<(! !-)!TA,6- | (A,4 !-(!^A,2)!<)! |!f!!-)!{/E} T^D6 | %110
 (11:12:11^D/E/F/^F/G/^G/A/^A/B/c/^c/ | (3!4!^d!1!e!0!e (3dee (3dee | (3^dee (3dee (3dee | z6 | %114
 z6 |!ff! !2!!1![FA]4 !arpeggio![^Aeae']2- | [Aeae']4 !fermata!z2 | z4 z !0!B | %118
 !2!c!1!^G!2!A!3!F!2!E!1!G | !2!A!1!^G!3!F!2!E!1!^D!2!E | !1!^D!2!B,!3!C!4!^G,!0!A,!3!F, | %121
 !2!E,!1!^D,!3!F,!2!E,!3!B,!4!C |{/A,} .!0![A,Ace] z z4 |] %123
V:4
 x10 |[M:6/4] x12 |[M:5/4] !2!E2 !3!D2 !2!E2 !3!F2 !3!G2 | %3
[M:6/4] !3!F2 !3!G2 !1!C2 !4!F2 C2 !2!B,2 |[M:5/4] x10 |[M:6/4] !4!C!1!D !2!B,2- B,8 |[M:5/4] x10 | %7
[M:6/4] x12 | x12 | !3!B!2!=d !1!dd!3!e!1!d !2!d!4!=c!3!e!0, damp!=G !2!d2 |[M:5/4] x10 | %11
[M:6/4] x12 | !3!d!2!f !1!ff!3!g!1!f !2!f!4!e!3!g!0, damp!B !2!f2 | x12 | x12 | x12 | x12 | x12 | %18
 x12 | !2![ce]e !0!B2 !1!c2 B2 c2 B2 | !3!!2![ce]!2!e !0!B2 !1!c2 B2 [EA]2 !3!!1![DF]2 | %21
 B2 B2 B2 B2 B2 !1!G2 | x12 | x12 |][K:C][M:3/4] x6 | x6 | x6 | x6 | x6 | x6 | x6 | x6 | x6 | x6 | %34
 x6 | x6 | x6 | x6 | x6 | x6 | x6 | x6 |: x6 | x6 | x6 | x6 | x6 | x6 | x6 | x6 | x6 | x6 :| x6 | %53
 x6 | x6 | x6 | x6 | x6 | x6 | x6 | x6 ||[M:4/4] x8 | x8 | x8 | x8 | x8 | x8 | x8 |[M:3/4] x6 | %69
 x6 |[M:4/4] x8 | x8 | x8 | x8 | x8 | x8 | x8 |[M:3/4] x6 | x6 |[M:4/4] x8 | x8 |[M:3/4] x6 | x6 | %83
[M:4/4] x8 | x8 | x8 | x8 | x8 | x8 | x8 | x8 | x8 | x8 | x8 | x8 |[M:3/4] x6 | x6 | x6 | x6 | x6 | %100
 x6 | x6 | x6 | x6 | x6 | x6 | x6 | x6 | x6 | x6 | x6 | x6 | x6 | x6 | x6 | F4{/x} A,2- | A,4 z2 | %117
 x6 | x6 | x6 | x6 | x6 | x6 |] %123
V:5
 z10 |[M:6/4] z12 |[M:5/4]!mf! !3!C2 !1!B,2 !3!C2 !1!B,2 !4!G,2 | %3
[M:6/4]"^II" !1!B,2 !1!E2 !4!C2 !3!F,2 !1!^A,2 !2!B,2 |[M:5/4] z10 | %5
[M:6/4]!mp! !2!C!4!D !1!B,2 !1!B,2 !2!E2 !4!C2 !1!B,2 |[M:5/4] z10 |[M:6/4] EF =D2 D2 =G2 E2 D2 | %8
!mf!"^CII" A6 A6 |!f! !1!B,!0!A, !4!=G,2 !0!A,B, !0!=D2 !1!E2 !0!D2 |[M:5/4]!mp!"^CII" A6 A4 | %11
[M:6/4]!mf! !2!E,2- E,2 !1!D,2 !2!E,2 !2!E,2 !3!E2 |!f! !1!D!4!C !2!B,2 !4!CD !1!F2 G2 !4!F2 | %13
!mf! !1!D2 !3!E2 !2!B,2 !4!C2 !2!B,2 !2!C2 | !4!G,2 !2!C2 !4!G,2 !2!C2 !4!G,2 !2!C2 | %15
 !3!F,2 !1!B,2 !4!C2 !3!F,2 !1!B,2 !4!C2 | !3!F,2 !1!B,2 !3!F,2 !1!B,2 !4!C2 !1!D,!2!E, | %17
 !1!D,2 !2!E,2 !1!D,2 !4!C2 !2!B,2 !4!C2 | !2!B,2 !4!C2 !1!D!2!E !1!D2 !2!E2 !1!D2 | %19
 !4!C2 !2!B,2 !4!C2 !2!B,2 !4!C2 !2!B,2 | !4!F,2 !2!B,2 !4!C2 !2!B,2!ff! !0!A,2 !1!B,2 | %21
 !4!G,2 !2!F,2 !2!E,2 !1!D,2 !4!C2 !4!C2 | !3!F,2 !1!^A,2 !2!B,2 !breath!!3!E2 !1!D2 !4!C2 | %23
 !2!B,2 !3!E2 !4!C2 !3!F,2 !1!B,2 .!1!!2![E,E]2 |][K:C][M:3/4] z6 | z6 | z6 | %27
!mf! !1!F!0!A,!3!^G,!1!F!4!E!3!G, | !1!C6- | C6 | z6 | z6 | z6 | z4 !fermata!z2 | %34
!ff! ((!3!F!2!A,!1!^G,!3!F!2!E!1!G,)) | !fermata!!4!C6- | C4- C z | %37
!ff! ((!3!F!2!A,!1!^G,!3!F!2!E!1!=G,)) | !4!^A,2 (!3!E!2!F, !0!=A,2) | %39
 (!2!E!1!E,) (!4!^G,2 !1!E,) z | .!1!E,2 .!2!E2 .E,2 | !fermata!z6 |: !0!A,2 A,4- | A,6 | !1!^D6 | %45
 !2!c6 |{/!3!A} !0!A,2 A,4- | A,6 | !0!D6 | !1!c6 | z2{/!3!F} .!2!E2{/!3!F,} .!1!E,2 | %51
 !fermata!z6 :| z6 | z6 | z6 | z6 | z6 | z6 | z6 | z6 | z6 ||[M:4/4]!mf!!mf! !0!A,4 !1!^D,4 | %62
 !0!A,4 !2!E,4 | !0!A,4 !3!^F,2 !2!=F,2 | !4!!0![G,G]4 !3!^F,4 | !0!A,2 !3!^F,2 !2!=F,2 !0!A,2 | %66
 !4!^G,2 !1!C2 !4!G,4 | !0!A,2 !4!^G,2 !1!C2 !4!G,2 |[M:3/4]!ff! !1!F!0!A,!3!^G,!1!F!4!E!3!G, | %69
 !1!C2 !fermata!z4 |[M:4/4]!mf! !0!A,4 !1!^D,4 | !0!A,4 !1!!2![E,E]4 | !0!A,4 !4!G,2 ^F,2 | %73
 !1!^A,4 !0!=A,4 | !0!A,2 !4!G,2 !2!^F,2 !1!^A,2 | !0!A,2 !1!^D,2 !0!A,4 | %76
 !2!^A,2 !0!=A,2 !1!^D,2 !2!^A,2 |[M:3/4] z6 | !fermata!z6 |[M:4/4]!mf! !0!D,4 !4!^G,4 | %80
 !0!D,4 !2!A,4 |[M:3/4]!ff! !1!F!0!A,!3!^G,!1!F!4!E!3!G, | !1!C2 !fermata!z4 | %83
[M:4/4]!mf! !0!A,2 z2 !4!A4 | !3!^G4 !2!=G4 | !4!^F4 !3!=F4 | !2!E4 !1!^D4 | !0!D4 !4!^C4 | %88
 !3!C4 !2!B,4 | !0!A,4 !1!^A,2 !3!F2 | !2!E2 !0!A,2 !1!^D4 | !0!D4 !3!^C2 !4!G,2 | %92
 !3!^F,2 !4!C2 !2!B,4 | !1!^A,2 !3!F,2 !0!=A,4 | !4!^G,2 !1!E,2 !4!=G,2 z2 |[M:3/4] z6 | z6 | z6 | %98
 z6 |"^V" !1![ce]2 [ce]4 | z6 | !3!!1![Ac]2 [Ac]2- [Ac] x | !2!!1![fa]2 [fa]2- [fa] z | %103
 !1![ce]2 [ce]4 | z6 | !2!!1![Ac]2 [Ac]2- [Ac] z | !3!!2![FA]2 [FA-]2 [^FA] z | %107
 !3!!2![CE]2 [CE]2- [CE] z | z6 | [CE]2 [CE]2- [CE] z | z6 | !2!!1![Ac]2 [Ac]2- !-(![Ac] z | z6 | %113
!f! !2!!-)!!1![df]2 [df]2- [df] z | z6 |!ff! [D,D]4 [D,D]2- | [D,D]4 !fermata!z2 | z6 | z6 | z6 | %120
 z6 | z6 | z6 |] %123
V:6
 x10 |[M:6/4] x12 |[M:5/4] x10 |[M:6/4] x12 |[M:5/4] x10 |[M:6/4] x12 |[M:5/4] x10 |[M:6/4] x12 | %8
 !2!=C4 !1!B,2 C4 C2 | z12 |[M:5/4] !2!=C4 !1!B,2 C3 z |[M:6/4] x12 | x12 | x12 | x12 | x12 | x12 | %17
 x12 | x12 | x12 | x12 | x12 | x12 | x12 |][K:C][M:3/4] x6 | x6 | x6 | x6 | x6 | x6 | x6 | x6 | %32
 x6 | x6 | x6 | x6 | x6 | x6 | x6 | x6 | x6 | x6 |: x6 | x6 | x6 | x6 | x6 | x6 | x6 | x6 | x6 | %51
 x6 :| x6 | x6 | x6 | x6 | x6 | x6 | x6 | x6 | x6 ||[M:4/4] x8 | x8 | x8 | x8 | x8 | x8 | x8 | %68
[M:3/4] x6 | x6 |[M:4/4] x8 | x8 | x8 | x8 | x8 | x8 | x8 |[M:3/4] x6 | x6 |[M:4/4] x8 | x8 | %81
[M:3/4] x6 | x6 |[M:4/4] x8 | x8 | x8 | x8 | x8 | x8 | x8 | x8 | x8 | x8 | x8 | x8 |[M:3/4] x6 | %96
 x6 | x6 | x6 | x6 | x6 | x6 | x6 | x6 | x6 | x6 | x6 | x6 | x6 | x6 | x6 | x6 | x6 | x6 | x6 | %115
 x6 | x6 | x6 | x6 | x6 | x6 | x6 | x6 |] %123

